X: 1
T: Wicked Willie
C: Andrew Rankine
R: reel
Z: 2008 John Chambers <jc:trillian.mit.edu>
M: C|
L: 1/8
K: D
A2 \
|: "D"d2ce dfed | "D"dfed "A7"cee2 |\
[1 "A7"c2Bd cedc | "A7"ABAG "D"FAA2 :|\
[2 "A7"c2Bd cecB | "A7"Acge "D"fdd2 |]
|: "D"f2ef "(A7)"edcB | "D"A2^GA BAGA |\
[1 "G"=G2FG "A7"AGFG | "D"A2^GA "A7"BAGA :|\
[2 "G"=G2FG "A7"BGcA | "D"d2d2 d4 |]
